_icons/SVG/550-basculin-blue.svg

<svg xmlns="http://www.w3.org/2000/svg" viewBox="0 0 32 32"><title>550-basculin-blue</title><polygon points="27.048 15.223 28.51 9.282 24.261 14.949 23.895 19.336 29.607 20.022 28.099 18.285 31.938 12.253 27.048 15.223" style="fill:#dadddc"/><polygon points="16.002 0.051 16 0.058 16 6.164 17.68 6.038 16.002 0.051" style="fill:#dadddc"/><path d="M18.29539,24.043H21.095l.69774,1.23393,1.82793-3.61024,1.56436,2.45222a34.45065,34.45065,0,0,0,.38885-5.514A15.47453,15.47453,0,0,0,21.65306,7.85261C18.6983,12.3564,18.52164,18.21169,18.29539,24.043Z" style="fill:#349363"/><path d="M21.095,7.32562A7.6801,7.6801,0,0,0,16,5.26082V24.043h1.33587C17.5711,17.9752,17.86129,11.93427,21.095,7.32562Z" style="fill:#5c6664"/><path d="M17.33587,24.043h.95952c.22625-5.83129.40291-11.68658,3.35767-16.19037-.18093-.18511-.36791-.3593-.55811-.527C17.86129,11.93427,17.5711,17.9752,17.33587,24.043Z" style="fill:#377aa0"/><path d="M25.18506,24.11889,23.6207,21.66667l-1.82793,3.61024L21.095,24.043H16v7.90589C20.35435,31.94887,24.02338,31.25068,25.18506,24.11889Z" style="fill:#338c5d"/><path d="M19.9513,11.36973A30.83333,30.83333,0,0,0,18.534,19.27756c.6293,1.22055,1.4957,1.95778,2.34086,1.83594,1.36137-.19633,2.14969-2.5425,1.76077-5.24042C22.29276,13.49534,21.1497,11.64273,19.9513,11.36973Z" style="fill:#f7f7f7"/><path d="M20.11741,14.72628c-.65324.16537-.91546,1.35562-.58562,2.65851s1.12667,2.225,1.77991,2.05964.91546-1.35562.58563-2.65843S20.77065,14.56091,20.11741,14.72628Z" style="fill:#377aa0"/><polygon points="4.952 15.223 3.49 9.282 7.739 14.949 8.105 19.336 2.393 20.022 3.901 18.285 0.062 12.253 4.952 15.223" style="fill:#e3e5e5"/><polygon points="15.998 0.051 16 0.058 16 6.164 14.32 6.038 15.998 0.051" style="fill:#e3e5e5"/><path d="M13.70461,24.043H10.905l-.69774,1.23393L8.3793,21.66667,6.81494,24.11889a34.45065,34.45065,0,0,1-.38885-5.514A15.47453,15.47453,0,0,1,10.34694,7.85261C13.3017,12.3564,13.47836,18.21169,13.70461,24.043Z" style="fill:#379b6d"/><path d="M10.905,7.32562A7.6801,7.6801,0,0,1,16,5.26082V24.043H14.66413C14.4289,17.9752,14.13871,11.93427,10.905,7.32562Z" style="fill:#687271"/><path d="M14.66413,24.043h-.95952c-.22625-5.83129-.40291-11.68658-3.35767-16.19037.18093-.18511.36791-.3593.55811-.527C14.13871,11.93427,14.4289,17.9752,14.66413,24.043Z" style="fill:#3980a8"/><path d="M6.81494,24.11889,8.3793,21.66667l1.82793,3.61024L10.905,24.043H16v7.90589C11.64565,31.94887,7.97662,31.25068,6.81494,24.11889Z" style="fill:#349363"/><path d="M12.0487,11.36973A30.83333,30.83333,0,0,1,13.466,19.27756c-.6293,1.22055-1.4957,1.95778-2.34086,1.83594-1.36137-.19633-2.14969-2.5425-1.76077-5.24042C9.70724,13.49534,10.8503,11.64273,12.0487,11.36973Z" style="fill:#fff"/><path d="M11.88259,14.72628c.65324.16537.91546,1.35562.58562,2.65851s-1.12667,2.225-1.77991,2.05964-.91546-1.35562-.58563-2.65843S11.22935,14.56091,11.88259,14.72628Z" style="fill:#3980a8"/></svg>

<svg xmlns="http://www.w3.org/2000/svg" viewBox="0 0 32 32"><path fill="#dadddc" d="M27.048 15.223l1.462-5.941-4.249 5.667-.366 4.387 5.712.686-1.508-1.737 3.839-6.032-4.89 2.97zM16.002.051L16 .058v6.106l1.68-.126L16.002.051z"/><path d="M18.295 24.043h2.8l.698 1.234 1.828-3.61 1.564 2.452a34.45 34.45 0 00.389-5.514 15.475 15.475 0 00-3.92-10.752c-2.956 4.503-3.132 10.359-3.359 16.19z" fill="#349363"/><path d="M21.095 7.326A7.68 7.68 0 0016 5.26v18.782h1.336c.235-6.068.525-12.109 3.759-16.717z" fill="#5c6664"/><path d="M17.336 24.043h.96c.226-5.831.402-11.687 3.357-16.19a9.845 9.845 0 00-.558-.527c-3.234 4.608-3.524 10.65-3.76 16.717z" fill="#377aa0"/><path d="M25.185 24.119l-1.564-2.452-1.828 3.61-.698-1.234H16v7.906c4.354 0 8.023-.698 9.185-7.83z" fill="#338c5d"/><path d="M19.951 11.37a30.833 30.833 0 00-1.417 7.908c.63 1.22 1.496 1.957 2.34 1.836 1.362-.197 2.15-2.543 1.762-5.24-.343-2.379-1.486-4.231-2.685-4.504z" fill="#f7f7f7"/><path d="M20.117 14.726c-.653.166-.915 1.356-.585 2.659s1.126 2.225 1.78 2.06.915-1.356.585-2.659-1.126-2.225-1.78-2.06z" fill="#377aa0"/><path fill="#e3e5e5" d="M4.952 15.223L3.49 9.282l4.249 5.667.366 4.387-5.712.686 1.508-1.737-3.839-6.032 4.89 2.97zM15.998.051L16 .058v6.106l-1.68-.126L15.998.051z"/><path d="M13.705 24.043h-2.8l-.698 1.234-1.828-3.61-1.564 2.452a34.45 34.45 0 01-.389-5.514 15.475 15.475 0 013.92-10.752c2.956 4.503 3.132 10.359 3.359 16.19z" fill="#379b6d"/><path d="M10.905 7.326A7.68 7.68 0 0116 5.26v18.782h-1.336c-.235-6.068-.525-12.109-3.759-16.717z" fill="#687271"/><path d="M14.664 24.043h-.96c-.226-5.831-.402-11.687-3.357-16.19.18-.185.368-.36.558-.527 3.234 4.608 3.524 10.65 3.76 16.717z" fill="#3980a8"/><path d="M6.815 24.119l1.564-2.452 1.828 3.61.698-1.234H16v7.906c-4.354 0-8.023-.698-9.185-7.83z" fill="#349363"/><path d="M12.049 11.37a30.833 30.833 0 011.417 7.908c-.63 1.22-1.496 1.957-2.34 1.836-1.362-.197-2.15-2.543-1.762-5.24.343-2.379 1.486-4.231 2.685-4.504z" fill="#fff"/><path d="M11.883 14.726c.653.166.915 1.356.585 2.659s-1.126 2.225-1.78 2.06-.915-1.356-.585-2.659 1.126-2.225 1.78-2.06z" fill="#3980a8"/></svg>
